X: 10292
Q: "Moderate."
M: 3/4
L: 1/8
K: D
d2A2(FE) | D2E2F2 | G2B2(dc) | c2A2c2 |\
d2A2F2 | G3AB2 | A2d2c2 | d4 :|\
e>e |\
f2d2f2 | e2c2A2 | B3c (de) | c3BA2 |
f2d2f2 | e2c2A2 | d2c2B2 | A4(Bc) |\
d2A2FE | D3EF2 | G2B2(ed) | c2A2c2 |\
d2A2F2 | G3AB2 | A2d2c2 | d4 |]


